Catalina-dark/actions/22/text-frame-unlink.svg

<svg viewBox="0 0 22 22" xmlns="http://www.w3.org/2000/svg">
<defs>
<style id="current-color-scheme" type="text/css">.ColorScheme-Text {
        color:#dedede;
      }</style>
</defs>
<path class="ColorScheme-Text" d="m3 3v1 15h1 6v-1-14-1h-6-1zm1 1h5v14h-5v-14zm1 1v1h3v-1h-3zm0 2v1h3v-1h-3zm0 2v1h3v-1h-3zm0 2v1h2v-1h-2z" fill="currentColor"/>
<path d="m13 3v1h5v14h-5v1h6v-1-15h-6zm0 15v-14h-1v14h1z" fill="#da4453"/>
</svg>

<svg xmlns="http://www.w3.org/2000/svg" viewBox="0 0 22 22">
  <defs id="defs3051">
    <style type="text/css" id="current-color-scheme">
      .ColorScheme-Text {
        color:#f2f2f2;
      }
      </style>
  </defs>
 <path 
     style="fill:currentColor;fill-opacity:1;stroke:none" 
     d="M 3 3 L 3 4 L 3 19 L 4 19 L 10 19 L 10 18 L 10 4 L 10 3 L 4 3 L 3 3 z M 4 4 L 9 4 L 9 18 L 4 18 L 4 4 z M 5 5 L 5 6 L 8 6 L 8 5 L 5 5 z M 5 7 L 5 8 L 8 8 L 8 7 L 5 7 z M 5 9 L 5 10 L 8 10 L 8 9 L 5 9 z M 5 11 L 5 12 L 7 12 L 7 11 L 5 11 z "
	 class="ColorScheme-Text"
     />
    <path
       style="opacity:1;fill:#da4453;fill-opacity:1;stroke:none"
       d="M 13 3 L 13 4 L 18 4 L 18 18 L 13 18 L 13 19 L 19 19 L 19 18 L 19 3 L 13 3 z M 13 18 L 13 4 L 12 4 L 12 18 L 13 18 z " />
</svg>
